X:741
T:Katie Bairdie 
C:Joe Buchanan's Scottish Tome - Page 413.4
I:413 4
R:Schottische
Z:Carl Allison
L:1/8
M:2/4
K:D
"D"a2 a>g f>g a2 | "Em"e>fg>f e>f "A7"g2 | "D"a2 a>g f>g a2 | "Bm"d>ef>d "A7"e2 "D"d2 :|
"D"g>dA>e (f<d) f2 | "Em"g>ec>e g>e "A7"g2 | "D"f>dA>d f>d f2 | "Bm"d>ef>d "A7"e2 "D"d2 :|

